src/lib/packages/icons/src/assets/filled/folder-lock.svg

<svg width="24" height="24" viewBox="0 0 24 24" fill="none" xmlns="http://www.w3.org/2000/svg">
<path d="M12.75 11.5V12.6H11.25V11.5C11.25 11.086 11.587 10.75 12 10.75C12.413 10.75 12.75 11.086 12.75 11.5ZM21 10V17C21 19 20 20 18 20H6C4 20 3 19 3 17V7C3 5 4 4 6 4H10L13 7H18C20 7 21 8 21 10ZM15 13.95C15 13.28 14.749 12.861 14.25 12.69V11.5C14.25 10.259 13.24 9.25 12 9.25C10.76 9.25 9.75 10.259 9.75 11.5V12.69C9.251 12.861 9 13.28 9 13.95V16.05C9 16.95 9.4501 17.4 10.3501 17.4H13.6499C14.5499 17.4 15 16.95 15 16.05V13.95Z" fill="currentColor"/>
</svg>

<svg xmlns="http://www.w3.org/2000/svg" width="24" height="24" fill="none"><path fill="currentColor" d="M12.75 11.5v1.1h-1.5v-1.1a.75.75 0 0 1 1.5 0ZM21 10v7c0 2-1 3-3 3H6c-2 0-3-1-3-3V7c0-2 1-3 3-3h4l3 3h5c2 0 3 1 3 3Zm-6 3.95c0-.67-.251-1.089-.75-1.26V11.5c0-1.241-1.01-2.25-2.25-2.25a2.253 2.253 0 0 0-2.25 2.25v1.19c-.499.171-.75.59-.75 1.26v2.1c0 .9.45 1.35 1.35 1.35h3.3c.9 0 1.35-.45 1.35-1.35v-2.1Z"/></svg>
